X:1
T:D minor                        Jacob Kimball, 1793
T:Isaac Watts, 1707 (Hymn 86, Book 2)               86. 86. (C. M.)                               
T:Tunbridge
T:Transcribed from Kimball's Rural Harmony, 1793.
%%score [ 1 2 3 ]
L:1/8
Q:1/4=90
M:2/4
K:F
V:1 treble nm="Tr." snm="Tr."
V:2 treble-8 nm="T." snm="T."
V:3 bass nm="B." snm="B."
V:1
 A2 | d3 A/G/ |{G} F3 A | BA GF |{F} E3 E | FG A^c | d/e/f ed |{d} ^c3 c | d3 A/G/ |{G} F3 A | %10
w: 1.~Our|sins, a- *|las, how|strong * they *|be! And|like * a *|vio- * * lent *|sea, They|break our *|du- ty,|
 BA GF |{F} E3 E | FG Ad | F2 E2 | D4 |: z2 z A | A2 A2 | c2 c2 | BA GF | G3 A | d2 d2 | ^c2 =B2 | %22
w: Lord, * to *|thee, And|hur- * ry *|us a-|way.|The|waves of|trou- ble,|how * they *|rise! How|loud the|tem- pests|
 A3 A | A>G B>A | A3 d | A>G B>A | A3 z | d2 A/B/ A/G/ | F2 E2 | D4 :| %30
w: roar! But|death * shall *|land our|wea- * ry *|souls|Safe on * the *|heav'n- ly|shore.|
V:2
 D2 | A3 F/E/ |{E} D3 F | GF ED |{D} ^C3 C | DE FA | B2 ^G2 | A3 A | A3 F/E/ |{E} D3 F | GF ED | %11
w: 2.~There,|to ful- *|fill his|sweet * com- *|mands, Our|spee- * dy *|feet shall|move; No|sin shall *|clog our|wing- * ed *|
{D} ^C3 C | DE FA | d2 ^c2 | d4 |: z2 z d | d2 d2 | e2 f2 | d2 f2 | e3 c | f2 f2 | e2 e>d | ^c3 A | %23
w: zeal, Or|cool * our *|bur- ning|love.|There|we shall|sit, and|sing, and|tell The|won- ders|of his *|grace, Till|
 F>E G>F | F3 F | F>E G>F | F3 z | A2 F/G/ F/E/ | D2 ^C2 | D4 :| %30
w: heav'n- * ly *|rap- tures|fire * our *|hearts,|And smile * in *|eve- ry|face.|
V:3
 D,2 | D,3 D, | D,3 D, | D,2 G,,2 | A,,3 A,, | D,2 D,2 | D,2 E,2 | A,,3 A,, | D,3 D, | D,3 D, | %10
w: 3.~For-|ev- er|his dear|sa- cred|name Shall|dwell up-|on our|tongue, And|Je- sus|and sal-|
 D,2 G,,2 | A,,3 A,, | D,2 D,2 | A,,2 A,,2 | D,4 |: z2 z D, | D,2 D,2 | C,2 F,2 | B,,2 F,2 | %19
w: va- tion|be The|close of|eve- ry|song.|A|thou- sand|years may|roll a-|
 C,3 F, | D,2 D,2 | E,2 E,2 | A,,3 D, | D,2 D,2 | D,3 D, | %25
w: round, Our|song shall|still go|on; To|bless the|Fa- ther,|
"^_____________________________________________________________________________\nWords by Isaac Watts (Hymn 86, Book 2), except econd half of stanza 3, from \nThe Hesperian Harp\n.\nThis was arranged by Bartholomew Brown, 1810, who added a \nCounter\n part; Brown's arrangement was further\narranged by William Hauser in The Hesperian Harp, 1848, with all grace notes and accidentals removed." D,2 D,2 | %26
w: and the|
 D,3 z | D,2 D,D, | A,2 A,,2 | D,4 :| %30
w: Son,|and Spi- rit,|three in|one.|

